public/avatar/body/216.svg

<svg xmlns:xlink="http://www.w3.org/1999/xlink" height="82" width="84.85" xmlns="http://www.w3.org/2000/svg"><g transform="translate(37.4 42.25)"><use height="38" transform="translate(-11.95 -17.45)" width="32.05" xlink:href="#a"/><use height="38.95" transform="translate(-12.45 -17.95)" width="33.05" xlink:href="#b"/><use height="31.45" transform="translate(-14.2 -.45)" width="35.9" xlink:href="#c"/></g><defs><path d="M27.35 7.4q2.15 4.15 3.55 8.75 1.45 4.7 1.15 9.5-.35 4.95-4.2 8.1-3.8 3.2-8.75 4.05l-2.6.2q-3.6 0-7.05-1.15-4.65-1.6-7.1-5.5Q-.2 27.4.05 23q.2-4.4 2-9.3Q3.85 8.75 7 5.05 10.1 1.3 14.7.1l1.8-.1q1.9.05 3.7.8 4.75 2.05 7.15 6.6" fill="#d88282" fill-rule="evenodd" transform="translate(-.05)" id="d"/><path d="M27.35 7.4Q24.95 2.85 20.2.8 17.55-.3 14.7.1 10.1 1.3 7 5.05q-3.15 3.7-4.95 8.65-1.8 4.9-2 9.3-.25 4.4 2.3 8.35 2.45 3.9 7.1 5.5 4.65 1.55 9.65.95 4.95-.85 8.75-4.05 3.85-3.15 4.2-8.1.3-4.8-1.15-9.5-1.4-4.6-3.55-8.75Z" fill="none" stroke="#000" stroke-linecap="round" stroke-linejoin="round" transform="translate(.45 .5)" id="e"/><use height="38" width="32.05" xlink:href="#d" id="a"/><use height="38.95" width="33.05" xlink:href="#e" id="b"/><g id="c" fill-rule="evenodd"><path d="m21.55 21.2.15 1.15-.3.3-2.3 2.15-.05.35-.35.2-2.65 1.1v.5l-.45.25-2.65.75v.65l-.4.2q-.95.6-4.25.85l-.2.9-.5.1L.95 31h-.8v-.75l-4.1-.95.1-.7q-4.05-1-4.35-1.35-1.55-.3-3.05-1.3l-.4-.25-.05-.95-2.5-1.95 3.15-11.45-1.55-8.65 3.1-3 .6.8 4.1 4.3Q.05 9.05 4.35 9.05q6.8 0 13.4-8.8l.55-.7 2.9 2.25-2.35 12.7 2.7 6.7" fill="#0d090e" transform="translate(14.2 .45)"/><path d="m20.75 21.4.05.65-2.45 2.15-.05.4-3.05 1.25-.05.6-3.1.8v.85q-.8.5-4.5.75l-.25 1-6.35.3v-.65l-4-.85.05-.65q-4.6-.85-4.75-1.5l-3.15-1.3-.05-.9-2.3-1.8 3.05-11.1-1.5-8.4 2.05-2 4.2 4.45Q-.25 9.9 4.35 9.9q7.3 0 14.1-9.15l1.85 1.4-2.3 12.4 2.75 6.85" fill="#d2c0a9" transform="translate(14.2 .45)"/><path d="m11.45 12.3 2.8-.3q1.25-.45 1.6-2 .65-2.95 2-5.25l1.25-1.7q-1.45 2.7-1.25 11.25-.1.35.45 3.4.45 2.8.2 2.95-.2.1-1.15-2.2-.95-2.25-1.5-2.05-.5.2-.05 3.25.5 3.05.05 3.35-.5.3-1.9-2.5t-1.8-2.5q-.8.55 1.2 6.3.2 1.55-1.9 2.35l-3.3.9q-.85.35-2.4-3.55-1.6-4.05-2-4.1-.55-.1-1.7 2.9Q.9 25.75.65 25.65q-.15-.05.2-3.05.35-2.95-.5-3.2-.8-.2-2.1 2.45Q-3 24.5-3.4 24.4q-.5-.15-.1-3.4.4-3.2 0-3.25-.45-.05-1.85 2.05-1.2 1.75-1.15 1.1.5-4.7-.9-4.7-.7 0-1.8 1.2l-.9.8q2.75-4.9 2.85-5.9l.35-2.6q.2-.25.85 1.7.6 1.9.8 1.35.3-.7 1.3-.2.9.45 1.45 1.25L-.8 17q1.75 1.85 4.9-1.7 2.6-2.95 7.35-3" fill="#a98d6d" transform="translate(14.2 .45)"/><path d="m-11.9 24.4 2.75-6.65q.55-1.05-1.75 6.85l-1-.2m25.1 3.35-1 .15q-2.1-7.95-1.55-6.9l2.55 6.75m-4.6 1.5-1.05.05-.45-6.45 1.5 6.4m7.9-3.4-.95.25q-3-7.7-2.35-6.65l3.3 6.4m3.05-1.95-1 .2q-2.3-7.9-1.75-6.85l2.75 6.65" fill="#0d090e" transform="translate(14.2 .45)"/><path d="m17.6 12.05 1.15-.8.3 2.35-.4.3Q14 17.3 8.05 18.35l1.25 3.5-1.95.65-.45-1.05-.6 4.85-2.15-.85.1-.65.75-6.2q-6.85.05-12.3-2.65l-4.3-2.85-.35-.4.75-2.1.95.7 4.75 2.65Q.45 16.5 6.4 16q6.15-.5 11.2-3.95" fill="#0d090e" transform="translate(14.2 .45)"/><path d="m18.1 12.75.05.5q-5.3 3.85-11.25 4.4l1.3 3.65-.35.1-1.35-3.3-.9 7-.5-.2q.8-5.35.8-7.15-7.05.25-12.65-2.45L-11 12.5l.2-.5 4.9 2.75q6.1 2.6 12.35 2.1 6.5-.5 11.65-4.1" fill="#b88d68" transform="translate(14.2 .45)"/><path d="M13.15 7.5q-3.7 2.2-6.85 3.45-.8.3-3.05 2-1.3 1-3.65.7-1.75-.25-4.15-3.6-1.75-2.3-2.9-3.25-.55-.45-.75.75-.2 1.05-.4.6l-2.3-4.95 1.2-1.05 2.75 2.65q3.35 2.9 6.3 4.4 4.75 2.35 13.8-1.7m-23.25 7.2q-.65 1-.85 3.7-.2 2.4 0 2.75.35.5-.75 2.6-.7-.35-1.5-1.25l1.5-5.7.8-2.85.55.15q.7-.1.25.6m.9 3.85v4.35q-.2 1.5.3 3.2-2-.5-2.15-1.05l1.85-6.5m1.5 7.95 1.95-5.75-.1 5 .75 1.85q-2.35-.45-2.6-1.1m5.95-3.8-.15 4.05q.15 1.65 1.25 2.3l-2.35-.4q-.35-.25.4-3.1l.85-2.85M1 30.05q-.15-5 1-7.05.55-1.05.8 2.35.2 4.2.9 4.7H1" fill="#ffedd4" transform="translate(14.2 .45)"/><path d="M-1.85 23.15q-1.15 3.35-1.3 6l-1-.15q1.05-5.85 2.75-7.7.25-.3-.45 1.85M1 30.05l-1.05-.1q.2-4.2 1.4-6.7.95-2.1 1.25-1.8.25.25-1.05 3.15-.15.4-.55 5.45m-9.8-3.45 3.3-6.4q.65-1.05-2.3 6.65l-1-.25m11.7.05q0-3.4 2.55-3.4T8 26.65Q8 30 5.45 30T2.9 26.65" fill="#0d090e" transform="translate(14.2 .45)"/><path d="M7.25 26.65q0 2.75-1.8 2.75t-1.8-2.75q0-2.75 1.8-2.75t1.8 2.75" fill="#b88d68" transform="translate(14.2 .45)"/><path d="m4.3 24.35 2.8.3q1.3.6 1.15 1.35l-.3.85-.65-.2q-1.3-.95-2.75-.7l-1.2.45-.25.55-.15-.3q-.75-.75-.2-1.45.45-.7 1.55-.85" fill="#0d090e" transform="translate(14.2 .45)"/><path d="M2.95 25.9q-.15-1.45 2.3-1.35 2.5.1 2.45 1.6-1.55-1.2-3.3-.85l-1.45.6" fill="#b88d68" transform="translate(14.2 .45)"/><path d="M4.35 27.8q-.55-1 .05-1.3.55-.3 1.1.7.45 1-.05 1.25-.55.35-1.1-.65" fill="#ebc58b" transform="translate(14.2 .45)"/><path d="M7.4 24.75q-1.6-2.95.65-4.2 2.25-1.15 3.85 1.75 1.6 3-.6 4.2-2.3 1.25-3.9-1.75" fill="#0d090e" transform="translate(14.2 .45)"/><path d="M11.25 22.7q1.3 2.35-.3 3.25-1.55.9-2.85-1.55-1.4-2.4.25-3.25 1.55-.9 2.9 1.55" fill="#b88d68" transform="translate(14.2 .45)"/><path d="M10.15 21.05q1.4-.15 1.65.6l.15.9-.7.15q-1.6-.25-2.75.65l-.8 1 .05.6-.3-.2q-1-.3-.9-1.15.1-.85.95-1.5 1.2-.9 2.65-1.05" fill="#0d090e" transform="translate(14.2 .45)"/><path d="M7.1 24.1q-.85-1.2 1.4-2.3 2.2-1.1 2.85.25-1.95-.3-3.3.85l-.95 1.2" fill="#b88d68" transform="translate(14.2 .45)"/><path d="M9.25 25.1q-.95-.65-.6-1.15l1.3.05q.9.65.55 1.15l-1.25-.05" fill="#ebc58b" transform="translate(14.2 .45)"/><path d="m19.15 17.55 1.65 4.5q.05.6-1.15 1.1-.05-3.95-.5-5.6m-1.75 2.3q1.55 4.35 1.2 4.7-.4.4-2 .8 1.75-1.45.8-5.5m-3.65 7.05q1.65-.75 1.05-3 .85 2.4.65 2.5l-1.7.5M8.9 28.75q2-.35 3.05-1.85l.15 1.2-3.2.65" fill="#ffedd4" transform="translate(14.2 .45)"/></g></defs></svg>

<?xml version="1.0" encoding="UTF-8" standalone="no"?>
<svg xmlns:xlink="http://www.w3.org/1999/xlink" height="82.0px" width="84.85px" xmlns="http://www.w3.org/2000/svg">
  <g transform="matrix(1.0, 0.0, 0.0, 1.0, 37.4, 42.25)">
    <use height="38.0" transform="matrix(1.0, 0.0, 0.0, 1.0, -11.95, -17.45)" width="32.05" xlink:href="#sprite0"/>
    <use height="38.95" transform="matrix(1.0, 0.0, 0.0, 1.0, -12.45, -17.95)" width="33.05" xlink:href="#sprite1"/>
    <use height="31.45" transform="matrix(1.0, 0.0, 0.0, 1.0, -14.2, -0.45)" width="35.9" xlink:href="#shape2"/>
  </g>
  <defs>
    <g id="sprite0" transform="matrix(1.0, 0.0, 0.0, 1.0, -0.05, 0.0)">
      <use height="38.0" transform="matrix(1.0, 0.0, 0.0, 1.0, 0.05, 0.0)" width="32.05" xlink:href="#shape0"/>
    </g>
    <g id="shape0" transform="matrix(1.0, 0.0, 0.0, 1.0, -0.05, 0.0)">
      <path d="M27.35 7.4 Q29.5 11.55 30.9 16.15 32.35 20.85 32.05 25.65 31.7 30.6 27.85 33.75 24.05 36.95 19.1 37.8 L16.5 38.0 Q12.9 38.0 9.45 36.85 4.8 35.25 2.35 31.35 -0.2 27.4 0.05 23.0 0.25 18.6 2.05 13.7 3.85 8.75 7.0 5.05 10.1 1.3 14.7 0.1 L16.5 0.0 Q18.4 0.05 20.2 0.8 24.95 2.85 27.35 7.4" fill="#d88282" fill-rule="evenodd" stroke="none"/>
    </g>
    <g id="sprite1" transform="matrix(1.0, 0.0, 0.0, 1.0, 0.45, 0.5)">
      <use height="38.95" transform="matrix(1.0, 0.0, 0.0, 1.0, -0.45, -0.5)" width="33.05" xlink:href="#shape1"/>
    </g>
    <g id="shape1" transform="matrix(1.0, 0.0, 0.0, 1.0, 0.45, 0.5)">
      <path d="M27.35 7.4 Q24.95 2.85 20.2 0.8 17.55 -0.3 14.7 0.1 10.1 1.3 7.0 5.05 3.85 8.75 2.05 13.7 0.25 18.6 0.05 23.0 -0.2 27.4 2.35 31.35 4.8 35.25 9.45 36.85 14.1 38.4 19.1 37.8 24.05 36.95 27.85 33.75 31.7 30.6 32.05 25.65 32.35 20.85 30.9 16.15 29.5 11.55 27.35 7.4 Z" fill="none" stroke="#000000" stroke-linecap="round" stroke-linejoin="round" stroke-width="1.0"/>
    </g>
    <g id="shape2" transform="matrix(1.0, 0.0, 0.0, 1.0, 14.2, 0.45)">
      <path d="M21.55 21.2 L21.7 22.35 21.4 22.65 19.1 24.8 19.05 25.15 18.7 25.35 16.05 26.45 16.05 26.95 15.6 27.2 12.95 27.95 12.95 28.6 12.55 28.8 Q11.6 29.4 8.3 29.65 L8.1 30.55 7.6 30.65 0.95 31.0 0.15 31.0 0.15 30.25 -3.95 29.3 -3.85 28.6 Q-7.9 27.6 -8.2 27.25 -9.75 26.95 -11.25 25.95 L-11.65 25.7 -11.7 24.75 -14.2 22.8 -11.05 11.35 -12.6 2.7 -9.5 -0.3 -8.9 0.5 -4.8 4.8 Q0.05 9.05 4.35 9.05 11.15 9.05 17.75 0.25 L18.3 -0.45 21.2 1.8 18.85 14.5 21.55 21.2" fill="#0d090e" fill-rule="evenodd" stroke="none"/>
      <path d="M20.75 21.4 L20.8 22.05 18.35 24.2 18.3 24.6 15.25 25.85 15.2 26.45 12.1 27.25 12.1 28.1 Q11.3 28.6 7.6 28.85 L7.35 29.85 1.0 30.15 1.0 29.5 -3.0 28.65 -2.95 28.0 Q-7.55 27.15 -7.7 26.5 L-10.85 25.2 -10.9 24.3 -13.2 22.5 -10.15 11.4 -11.65 3.0 -9.6 1.0 -5.4 5.45 Q-0.25 9.9 4.35 9.9 11.65 9.9 18.45 0.75 L20.3 2.15 18.0 14.55 20.75 21.4" fill="#d2c0a9" fill-rule="evenodd" stroke="none"/>
      <path d="M11.45 12.3 L14.25 12.0 Q15.5 11.55 15.85 10.0 16.5 7.05 17.85 4.75 L19.1 3.05 Q17.65 5.75 17.85 14.3 17.75 14.65 18.3 17.7 18.75 20.5 18.5 20.65 18.3 20.75 17.35 18.45 16.4 16.2 15.85 16.4 15.35 16.6 15.8 19.65 16.3 22.7 15.85 23.0 15.35 23.3 13.95 20.5 12.55 17.7 12.15 18.0 11.35 18.55 13.35 24.3 13.55 25.85 11.45 26.65 L8.15 27.55 Q7.3 27.9 5.75 24.0 4.15 19.95 3.75 19.9 3.2 19.8 2.05 22.8 0.9 25.75 0.65 25.65 0.5 25.6 0.85 22.6 1.2 19.65 0.35 19.4 -0.45 19.2 -1.75 21.85 -3.0 24.5 -3.4 24.4 -3.9 24.25 -3.5 21.0 -3.1 17.8 -3.5 17.75 -3.95 17.7 -5.35 19.8 -6.55 21.55 -6.5 20.9 -6.0 16.2 -7.4 16.2 -8.1 16.2 -9.2 17.4 L-10.1 18.2 Q-7.35 13.3 -7.25 12.3 L-6.9 9.7 Q-6.7 9.45 -6.05 11.4 -5.45 13.3 -5.25 12.75 -4.95 12.05 -3.95 12.55 -3.05 13.0 -2.5 13.8 L-0.8 17.0 Q0.95 18.85 4.1 15.3 6.7 12.35 11.45 12.3" fill="#a98d6d" fill-rule="evenodd" stroke="none"/>
      <path d="M-11.9 24.4 L-9.15 17.75 Q-8.6 16.7 -10.9 24.6 L-11.9 24.4" fill="#0d090e" fill-rule="evenodd" stroke="none"/>
      <path d="M13.2 27.75 L12.2 27.9 Q10.1 19.95 10.65 21.0 L13.2 27.75" fill="#0d090e" fill-rule="evenodd" stroke="none"/>
      <path d="M8.6 29.25 L7.55 29.3 7.1 22.85 8.6 29.25" fill="#0d090e" fill-rule="evenodd" stroke="none"/>
      <path d="M16.5 25.85 L15.55 26.1 Q12.55 18.4 13.2 19.45 L16.5 25.85" fill="#0d090e" fill-rule="evenodd" stroke="none"/>
      <path d="M19.55 23.9 L18.55 24.1 Q16.25 16.2 16.8 17.25 L19.55 23.9" fill="#0d090e" fill-rule="evenodd" stroke="none"/>
      <path d="M17.6 12.05 L18.75 11.25 19.05 13.6 18.65 13.9 Q14.0 17.3 8.05 18.35 L9.3 21.85 7.35 22.5 6.9 21.45 6.3 26.3 4.15 25.45 4.25 24.8 5.0 18.6 Q-1.85 18.65 -7.3 15.95 L-11.6 13.1 -11.95 12.7 -11.2 10.6 -10.25 11.3 -5.5 13.95 Q0.45 16.5 6.4 16.0 12.55 15.5 17.6 12.05" fill="#0d090e" fill-rule="evenodd" stroke="none"/>
      <path d="M18.1 12.75 L18.15 13.25 Q12.85 17.1 6.9 17.65 L8.2 21.3 7.85 21.4 6.5 18.1 5.6 25.1 5.1 24.9 Q5.9 19.55 5.9 17.75 -1.15 18.0 -6.75 15.3 L-11.0 12.5 -10.8 12.0 -5.9 14.75 Q0.2 17.35 6.45 16.85 12.95 16.35 18.1 12.75" fill="#b88d68" fill-rule="evenodd" stroke="none"/>
      <path d="M13.15 7.5 Q9.45 9.7 6.3 10.95 5.5 11.25 3.25 12.95 1.95 13.95 -0.4 13.65 -2.15 13.4 -4.55 10.05 -6.3 7.75 -7.45 6.8 -8.0 6.35 -8.2 7.55 -8.4 8.6 -8.6 8.15 L-10.9 3.2 -9.7 2.15 -6.95 4.8 Q-3.6 7.7 -0.65 9.2 4.1 11.55 13.15 7.5" fill="#ffedd4" fill-rule="evenodd" stroke="none"/>
      <path d="M-10.1 14.7 Q-10.75 15.7 -10.95 18.4 -11.15 20.8 -10.95 21.15 -10.6 21.65 -11.7 23.75 -12.4 23.4 -13.2 22.5 L-11.7 16.8 -10.9 13.95 -10.35 14.1 Q-9.65 14.0 -10.1 14.7" fill="#ffedd4" fill-rule="evenodd" stroke="none"/>
      <path d="M-9.2 18.55 L-9.2 22.9 Q-9.4 24.4 -8.9 26.1 -10.9 25.6 -11.05 25.05 L-9.2 18.55" fill="#ffedd4" fill-rule="evenodd" stroke="none"/>
      <path d="M-7.7 26.5 L-5.75 20.75 -5.85 25.75 -5.1 27.6 Q-7.45 27.15 -7.7 26.5" fill="#ffedd4" fill-rule="evenodd" stroke="none"/>
      <path d="M-1.75 22.7 L-1.9 26.75 Q-1.75 28.4 -0.65 29.05 L-3.0 28.65 Q-3.35 28.4 -2.6 25.55 L-1.75 22.7" fill="#ffedd4" fill-rule="evenodd" stroke="none"/>
      <path d="M1.0 30.05 Q0.85 25.05 2.0 23.0 2.55 21.95 2.8 25.35 3.0 29.55 3.7 30.05 L1.0 30.05" fill="#ffedd4" fill-rule="evenodd" stroke="none"/>
      <path d="M-1.85 23.15 Q-3.0 26.5 -3.15 29.15 L-4.15 29.0 Q-3.1 23.15 -1.4 21.3 -1.15 21.0 -1.85 23.15" fill="#0d090e" fill-rule="evenodd" stroke="none"/>
      <path d="M1.0 30.05 L-0.05 29.95 Q0.15 25.75 1.35 23.25 2.3 21.15 2.6 21.45 2.85 21.7 1.55 24.6 1.4 25.0 1.0 30.05" fill="#0d090e" fill-rule="evenodd" stroke="none"/>
      <path d="M-8.8 26.6 L-5.5 20.2 Q-4.85 19.15 -7.8 26.85 L-8.8 26.6" fill="#0d090e" fill-rule="evenodd" stroke="none"/>
      <path d="M2.9 26.65 Q2.9 23.25 5.45 23.25 8.0 23.25 8.0 26.65 8.0 30.0 5.45 30.0 2.9 30.0 2.9 26.65" fill="#0d090e" fill-rule="evenodd" stroke="none"/>
      <path d="M7.25 26.65 Q7.25 29.4 5.45 29.4 3.65 29.4 3.65 26.65 3.65 23.9 5.45 23.9 7.25 23.9 7.25 26.65" fill="#b88d68" fill-rule="evenodd" stroke="none"/>
      <path d="M4.3 24.35 L7.1 24.65 Q8.4 25.25 8.25 26.0 L7.95 26.85 7.3 26.65 Q6.0 25.7 4.55 25.95 L3.35 26.4 3.1 26.95 2.95 26.65 Q2.2 25.9 2.75 25.2 3.2 24.5 4.3 24.35" fill="#0d090e" fill-rule="evenodd" stroke="none"/>
      <path d="M2.95 25.9 Q2.8 24.45 5.25 24.55 7.75 24.65 7.7 26.15 6.15 24.95 4.4 25.3 L2.95 25.9" fill="#b88d68" fill-rule="evenodd" stroke="none"/>
      <path d="M4.35 27.8 Q3.8 26.8 4.4 26.5 4.95 26.2 5.5 27.2 5.95 28.2 5.45 28.45 4.9 28.8 4.35 27.8" fill="#ebc58b" fill-rule="evenodd" stroke="none"/>
      <path d="M7.4 24.75 Q5.8 21.8 8.05 20.55 10.3 19.4 11.9 22.3 13.5 25.3 11.3 26.5 9.0 27.75 7.4 24.75" fill="#0d090e" fill-rule="evenodd" stroke="none"/>
      <path d="M11.25 22.7 Q12.55 25.05 10.95 25.95 9.4 26.85 8.1 24.4 6.7 22.0 8.35 21.15 9.9 20.25 11.25 22.7" fill="#b88d68" fill-rule="evenodd" stroke="none"/>
      <path d="M10.15 21.05 Q11.55 20.9 11.8 21.65 L11.95 22.55 11.25 22.7 Q9.65 22.45 8.5 23.35 L7.7 24.35 7.75 24.95 7.45 24.75 Q6.45 24.45 6.55 23.6 6.65 22.75 7.5 22.1 8.7 21.2 10.15 21.05" fill="#0d090e" fill-rule="evenodd" stroke="none"/>
      <path d="M7.1 24.1 Q6.25 22.9 8.5 21.8 10.7 20.7 11.35 22.05 9.4 21.75 8.05 22.9 L7.1 24.1" fill="#b88d68" fill-rule="evenodd" stroke="none"/>
      <path d="M9.25 25.1 Q8.3 24.45 8.65 23.95 L9.95 24.0 Q10.85 24.65 10.5 25.15 L9.25 25.1" fill="#ebc58b" fill-rule="evenodd" stroke="none"/>
      <path d="M19.15 17.55 L20.8 22.05 Q20.85 22.65 19.65 23.15 19.6 19.2 19.15 17.55" fill="#ffedd4" fill-rule="evenodd" stroke="none"/>
      <path d="M17.4 19.85 Q18.95 24.2 18.6 24.55 18.2 24.95 16.6 25.35 18.35 23.9 17.4 19.85" fill="#ffedd4" fill-rule="evenodd" stroke="none"/>
      <path d="M13.75 26.9 Q15.4 26.15 14.8 23.9 15.65 26.3 15.45 26.4 L13.75 26.9" fill="#ffedd4" fill-rule="evenodd" stroke="none"/>
      <path d="M8.9 28.75 Q10.9 28.4 11.95 26.9 L12.1 28.1 8.9 28.75" fill="#ffedd4" fill-rule="evenodd" stroke="none"/>
    </g>
  </defs>
</svg>
